source/Icon/file-doc.svg

<svg width="32" height="32" viewBox="0 0 48 48" fill="none" xmlns="http://www.w3.org/2000/svg">
    <path d="M10 38V44H38V38" stroke="#000000" stroke-width="4" stroke-linecap="round" stroke-linejoin="round"/>
    <path d="M38 20V14L30 4H10V20" stroke="#000000" stroke-width="4" stroke-linecap="round" stroke-linejoin="round"/>
    <path d="M28 4V14H38" stroke="#000000" stroke-width="4" stroke-linecap="round" stroke-linejoin="round"/>
    <path d="M16 12H20" stroke="#000000" stroke-width="4" stroke-linecap="round"/>
    <rect x="4" y="20" width="40" height="18" rx="2" stroke="#000000" stroke-width="4" stroke-linejoin="round"/>
    <path d="M10 25V33" stroke="#000000" stroke-width="4" stroke-linecap="round"/>
    <path d="M10 25H12C14.2091 25 16 26.7909 16 29V29C16 31.2091 14.2091 33 12 33H10" stroke="#000000" stroke-width="4" stroke-linecap="round" stroke-linejoin="round"/>
    <ellipse cx="24" cy="29" rx="3" ry="4" stroke="#000000" stroke-width="4" stroke-linecap="round" stroke-linejoin="round"/>
    <path d="M38 25H36C33.7909 25 32 26.7909 32 29V29C32 31.2091 33.7909 33 36 33H38" stroke="#000000" stroke-width="4" stroke-linecap="round" stroke-linejoin="round"/>
</svg>

<svg width="48" height="48" viewBox="0 0 48 48" fill="none" xmlns="http://www.w3.org/2000/svg"><path stroke-linejoin="round" stroke-linecap="round" stroke-width="4" stroke="#333" d="M10 38v6h28v-6M38 20v-6L30 4H10v16"/><path stroke-linejoin="round" stroke-linecap="round" stroke-width="4" stroke="#333" d="M28 4v10h10"/><path stroke-linecap="round" stroke-width="4" stroke="#333" d="M16 12h4"/><rect stroke-linejoin="round" stroke-width="4" stroke="#333" rx="2" height="18" width="40" y="20" x="4"/><path stroke-linecap="round" stroke-width="4" stroke="#333" d="M10 25v8"/><path stroke-linejoin="round" stroke-linecap="round" stroke-width="4" stroke="#333" d="M10 25h2a4 4 0 0 1 4 4v0a4 4 0 0 1-4 4h-2"/><ellipse stroke-linejoin="round" stroke-linecap="round" stroke-width="4" stroke="#333" ry="4" rx="3" cy="29" cx="24"/><path stroke-linejoin="round" stroke-linecap="round" stroke-width="4" stroke="#333" d="M38 25h-2a4 4 0 0 0-4 4v0a4 4 0 0 0 4 4h2"/></svg>
